X:66
T:Steyrer Tanz in G, nr. 25
C:traditionell
R:Steirer
A:Hallstatt, Salzkammergut
B:Corpus Musicae Popularis Austriacae (COMPA), 5.Band: J.M.Schmalnauer " Tanz Musik", Verlag Boehlau, Wien 1996
S:manuscript des Johann Michael Schmalnauer um 1820
N:im der quelle in G
Z:abc transcription Simon Wascher
F:http://simonwascher.info/TradArchiv/
M:3/4
L:1/8
K:G
V:1
%violino 1mo
P:h:Ap:
ga |\
bdbd cc' | ac'agfg | adad db | gdgd Bd |\
bdbd cc' | ac'agfg | adad db | g4 :|
ga |\
bdbdbc' | a3 .g.f.g | adadab | g3 dBd |\
bdbdbc' | a3 .g.f.g | adadab | g4 :|
V:2
%violino 2do
(Bd |\
gB)(gB) Aa | fafede | fAfA Bg | dBdB DB |\
gBgB Aa | fafede | fAfA Dd | B4 :|
(Bd |\
gB)gBga | .f3 .e.d.e | fAfAfg | B3 BGB |\
gBgBga | .f3 .e.d.e | fAfAfg | B4 :|
